Newaita-dark/apps/24/com.github.alcinnz.odysseus.svg

<svg height="24" viewBox="0 0 24 24" width="24" xmlns="http://www.w3.org/2000/svg" xmlns:xlink="http://www.w3.org/1999/xlink"><linearGradient id="a"><stop offset="0" stop-opacity=".313726"/><stop offset=".222222" stop-opacity=".27451"/><stop offset="1" stop-opacity="0"/></linearGradient><radialGradient id="b" cx="450.908936" cy="189.579361" gradientTransform="matrix(.00000013 -.0585994 -.105479 -.00000008 33.392364 47.696497)" gradientUnits="userSpaceOnUse" r="21.166656" xlink:href="#a"/><radialGradient id="c" cx="450.908936" cy="189.579361" gradientTransform="matrix(-.00000013 .0585994 .105479 .00000008 -9.577589 -5.645612)" gradientUnits="userSpaceOnUse" r="21.166656" xlink:href="#a"/><radialGradient id="d" cx="450.908936" cy="189.579361" gradientTransform="matrix(-.00000013 -.0585994 .105479 -.00000008 -9.577589 47.696497)" gradientUnits="userSpaceOnUse" r="21.166656" xlink:href="#a"/><radialGradient id="e" cx="450.908936" cy="189.579361" gradientTransform="matrix(.00000013 .0585994 -.105479 .00000008 33.392362 -5.645612)" gradientUnits="userSpaceOnUse" r="21.166656" xlink:href="#a"/><linearGradient id="f" gradientTransform="matrix(.01002 0 0 .0468795 9.34904 10.079088)" gradientUnits="userSpaceOnUse" x1="255.323059" x2="255.323044" y1="233.5" y2="254.666656"><stop offset="0" stop-opacity=".27451"/><stop offset="1" stop-opacity="0"/></linearGradient><linearGradient id="g" gradientUnits="userSpaceOnUse" x1="11.907393" x2="11.907393" y1="2.17207774998" y2="21.02545025"><stop offset="0" stop-color="#4db6ac"/><stop offset="1" stop-color="#26a69a"/></linearGradient><linearGradient id="h" gradientUnits="userSpaceOnUse" x1="11.907393" x2="11.907393" y1="21.02545025" y2="2.17207774998"><stop offset="0" stop-color="#bdbdbd"/><stop offset="1" stop-color="#e0e0e0"/></linearGradient><linearGradient id="i" gradientUnits="userSpaceOnUse" x1="10.418955125" x2="10.418955125" y1="13.6542022738" y2="8.55104075595"><stop offset="0" stop-color="#8d6e63"/><stop offset="1" stop-color="#a1887f"/></linearGradient><linearGradient id="j" gradientUnits="userSpaceOnUse" x1="10.418962675" x2="10.418962675" y1="12.37841684523" y2="9.82683132381"><stop offset="0" stop-color="#424242"/><stop offset="1" stop-color="#616161"/></linearGradient><path d="m13.644531 21.027344h1.984375v-.996094h-1.984375zm0 0" fill="url(#b)"/><path d="m10.171875 21.027344h-1.984375v.992187h1.984375zm0 0" fill="url(#c)"/><path d="m10.171875 21.027344h-1.984375v-.996094h1.984375zm0 0" fill="url(#d)"/><path d="m13.644531 21.027344h1.984375v.992187h-1.984375zm0 0" fill="url(#e)"/><path d="m10.171875 20.777344h3.472656v1.242187h-3.472656zm0 0" fill="url(#f)"/><path d="m11.90625 2.171875c5.207031 0 9.429688 4.21875 9.429688 9.425781 0 5.207032-4.222657 9.429688-9.429688 9.429688-5.203125 0-9.425781-4.222656-9.425781-9.429688 0-5.207031 4.222656-9.425781 9.425781-9.425781zm0 0" fill="url(#g)"/><path d="m11.90625 21.027344c-5.222656 0-9.425781-4.207032-9.425781-9.429688 0-.03125 0-.058594 0-.089844.050781 5.179688 4.234375 9.332032 9.425781 9.332032s9.378906-4.152344 9.425781-9.332032c0 .03125.003907.058594.003907.089844 0 5.222656-4.207032 9.429688-9.429688 9.429688zm0 0" fill-opacity=".196078"/><path d="m11.90625 2.171875c-5.222656 0-9.425781 4.203125-9.425781 9.425781v.09375c.050781-5.179687 4.234375-9.335937 9.425781-9.335937s9.378906 4.15625 9.425781 9.335937c0-.03125.003907-.0625.003907-.09375 0-5.222656-4.207032-9.425781-9.429688-9.425781zm0 0" fill="#fff" fill-opacity=".392157"/><path d="m327.885355 160.797446c4.666221-2.583086 6.66603-8.165886 4.749547-13.082084l-50.495178-129.73761c-2.333111-5.999427-9.499093-8.499189-15.081893-5.332824l-36.663166 21.164645c-5.5828 3.24969-6.999332 10.748974-2.999713 15.831822l87.158343 108.572965c3.24969 3.999618 8.83249 5.082848 13.33206 2.583086zm0 0" style="fill:#fff;fill-opacity:.392157;stroke-width:3;stroke-linecap:round;stroke-linejoin:round;stroke:#212121" transform="matrix(.0468795 0 0 .0468795 0 10.079087)"/><path d="m180.066138-96.011363c-4.582896 2.583087-6.582705 8.165887-4.666221 13.082084l50.411852 129.737611c2.333111 6.082752 9.499093 8.582514 15.165219 5.332824l36.663165-21.164646c5.582801-3.249689 6.999332-10.665648 2.916389-15.748496l-87.075019-108.572965c-3.249689-3.999618-8.915815-5.082848-13.415385-2.666412zm0 0" fill="none" stroke="#212121" stroke-linecap="round" stroke-linejoin="round" stroke-width="3" transform="matrix(.0468795 0 0 .0468795 0 10.079087)"/><path d="m8.441406 5.578125c-.214844.121094-.308594.382813-.21875.613281l2.363282 6.082032c.109374.285156.445312.402343.710937.25l1.71875-.992188c.261719-.152344.328125-.5.136719-.738281l-4.082032-5.089844c-.152343-.1875-.417968-.238281-.628906-.125zm0 0" fill-opacity=".235294"/><path d="m11.90625 2.101562c-5.257812 0-9.496094 4.238282-9.496094 9.496094 0 5.261719 4.238282 9.5 9.496094 9.5 5.261719 0 9.5-4.238281 9.5-9.5 0-5.257812-4.238281-9.496094-9.5-9.496094zm0 .140626c5.1875 0 9.359375 4.171874 9.359375 9.355468 0 5.1875-4.171875 9.359375-9.359375 9.359375-5.183594 0-9.355469-4.171875-9.355469-9.359375 0-5.183594 4.171875-9.355468 9.355469-9.355468zm0 0" fill="#212121"/><path d="m7.441406 15.566406s.992188-1.207031 2.542969-1.484375c2.921875-.519531 4.671875-1.589843 5.648437-2.621093 1.222657-1.292969 1.730469-2.839844 1.730469-2.839844s-6.945312-1.984375-9.464843.992187c-1.847657 2.179688-.457032 5.953125-.457032 5.953125zm0 0" fill="url(#h)"/><path d="m10.417969 9.117188c1.097656 0 1.984375.890624 1.984375 1.984374 0 1.097657-.886719 1.984376-1.984375 1.984376-1.09375 0-1.984375-.886719-1.984375-1.984376 0-1.09375.890625-1.984374 1.984375-1.984374zm0 0" fill="url(#i)"/><path d="m10.417969 10.109375c.550781 0 .992187.445313.992187.992187 0 .550782-.441406.992188-.992187.992188-.546875 0-.992188-.441406-.992188-.992188 0-.546874.445313-.992187.992188-.992187zm0 0" fill="url(#j)"/><path d="m12.695312 7.972656c-1.8125 0-3.714843.359375-4.796874 1.640625-.769532.910157-.976563 2.09375-.957032 3.167969.019532-.996094.253906-2.0625.957032-2.894531 1.082031-1.277344 2.984374-1.640625 4.796874-1.636719 2.125.003906 4.128907.503906 4.574219.621094.066407-.15625.09375-.25.09375-.25s-2.257812-.644532-4.667969-.648438zm0 0" fill="#fff"/><path d="m17.1875 9.070312c-.242188.554688-.738281 1.527344-1.554688 2.390626-.976562 1.03125-2.726562 2.101562-5.648437 2.621093-1.550781.277344-2.542969 1.484375-2.542969 1.484375s-.449218-1.21875-.496094-2.667968c-.058593 1.660156.496094 3.164062.496094 3.164062s.992188-1.207031 2.542969-1.484375c2.921875-.519531 4.671875-1.589844 5.648437-2.621094 1.222657-1.292969 1.730469-2.839843 1.730469-2.839843s-.0625-.015626-.175781-.046876zm0 0" fill-opacity=".235294"/><g fill="none" stroke="#212121" stroke-width="3" transform="matrix(.0468795 0 0 .0468795 0 10.079087)"><path d="m158.734842 117.051624s21.164645-25.747541 54.244819-31.663643c62.327382-11.082275 99.65715-33.913428 120.488494-55.911327 26.080843-27.5807 36.913142-60.577549 36.913142-60.577549s-148.152519-42.329291-201.897386 21.164646c-39.412903 46.49556-9.749069 126.987873-9.749069 126.987873zm0 0"/><path d="m222.228778-20.518572c23.414431 0 42.329291 18.998186 42.329291 42.329291 0 23.414431-18.91486 42.329291-42.329291 42.329291-23.331105 0-42.329291-18.91486-42.329291-42.329291 0-23.331105 18.998186-42.329291 42.329291-42.329291zm0 0" stroke-linecap="round" stroke-linejoin="round"/><path d="m222.228778.646073c11.748878 0 21.164646 9.499093 21.164646 21.164646 0 11.748878-9.415768 21.164646-21.164646 21.164646-11.665552 0-21.164645-9.415768-21.164645-21.164646 0-11.665553 9.499093-21.164646 21.164645-21.164646zm0 0" stroke-linecap="round" stroke-linejoin="round"/></g><path d="m10.171875 10.359375c.273437 0 .496094.222656.496094.496094 0 .273437-.222657.496093-.496094.496093s-.496094-.222656-.496094-.496093c0-.273438.222657-.496094.496094-.496094zm0 0" fill="#fff" fill-opacity=".156863"/></svg>

<?xml version="1.0" encoding="UTF-8"?>
<svg xmlns="http://www.w3.org/2000/svg" xmlns:xlink="http://www.w3.org/1999/xlink" width="24px" height="24px" viewBox="0 0 24 24" version="1.1">
<defs>
<radialGradient id="radial0" gradientUnits="userSpaceOnUse" cx="450.908936" cy="189.579361" fx="450.908936" fy="189.579361" r="21.166656" gradientTransform="matrix(0.000000130628,-0.0585994,-0.105479,-0.0000000761539,33.392364,47.696497)">
<stop offset="0" style="stop-color:rgb(0%,0%,0%);stop-opacity:0.313726;"/>
<stop offset="0.222222" style="stop-color:rgb(0%,0%,0%);stop-opacity:0.27451;"/>
<stop offset="1" style="stop-color:rgb(0%,0%,0%);stop-opacity:0;"/>
</radialGradient>
<radialGradient id="radial1" gradientUnits="userSpaceOnUse" cx="450.908936" cy="189.579361" fx="450.908936" fy="189.579361" r="21.166656" gradientTransform="matrix(-0.000000130628,0.0585994,0.105479,0.0000000761539,-9.577589,-5.645612)">
<stop offset="0" style="stop-color:rgb(0%,0%,0%);stop-opacity:0.313726;"/>
<stop offset="0.222222" style="stop-color:rgb(0%,0%,0%);stop-opacity:0.27451;"/>
<stop offset="1" style="stop-color:rgb(0%,0%,0%);stop-opacity:0;"/>
</radialGradient>
<radialGradient id="radial2" gradientUnits="userSpaceOnUse" cx="450.908936" cy="189.579361" fx="450.908936" fy="189.579361" r="21.166656" gradientTransform="matrix(-0.000000130628,-0.0585994,0.105479,-0.0000000761539,-9.577589,47.696497)">
<stop offset="0" style="stop-color:rgb(0%,0%,0%);stop-opacity:0.313726;"/>
<stop offset="0.222222" style="stop-color:rgb(0%,0%,0%);stop-opacity:0.27451;"/>
<stop offset="1" style="stop-color:rgb(0%,0%,0%);stop-opacity:0;"/>
</radialGradient>
<radialGradient id="radial3" gradientUnits="userSpaceOnUse" cx="450.908936" cy="189.579361" fx="450.908936" fy="189.579361" r="21.166656" gradientTransform="matrix(0.000000130628,0.0585994,-0.105479,0.0000000761539,33.392362,-5.645612)">
<stop offset="0" style="stop-color:rgb(0%,0%,0%);stop-opacity:0.313726;"/>
<stop offset="0.222222" style="stop-color:rgb(0%,0%,0%);stop-opacity:0.27451;"/>
<stop offset="1" style="stop-color:rgb(0%,0%,0%);stop-opacity:0;"/>
</radialGradient>
<linearGradient id="linear0" gradientUnits="userSpaceOnUse" x1="255.323059" y1="233.5" x2="255.323044" y2="254.666656" gradientTransform="matrix(0.01002,0,0,0.0468795,9.34904,10.079088)">
<stop offset="0" style="stop-color:rgb(0%,0%,0%);stop-opacity:0.27451;"/>
<stop offset="1" style="stop-color:rgb(0%,0%,0%);stop-opacity:0;"/>
</linearGradient>
<linearGradient id="linear1" gradientUnits="userSpaceOnUse" x1="254" y1="-168.666672" x2="254" y2="233.5" gradientTransform="matrix(0.0468795,0,0,0.0468795,0,10.079087)">
<stop offset="0" style="stop-color:rgb(30.19608%,71.372551%,67.450982%);stop-opacity:1;"/>
<stop offset="1" style="stop-color:rgb(14.901961%,65.098041%,60.392159%);stop-opacity:1;"/>
</linearGradient>
<linearGradient id="linear2" gradientUnits="userSpaceOnUse" x1="254" y1="233.5" x2="254" y2="-168.666672" gradientTransform="matrix(0.0468795,0,0,0.0468795,0,10.079087)">
<stop offset="0" style="stop-color:rgb(74.117649%,74.117649%,74.117649%);stop-opacity:1;"/>
<stop offset="1" style="stop-color:rgb(87.843138%,87.843138%,87.843138%);stop-opacity:1;"/>
</linearGradient>
<linearGradient id="linear3" gradientUnits="userSpaceOnUse" x1="222.25" y1="64.166664" x2="222.25" y2="-31.083334" gradientTransform="matrix(0.0535765,0,0,0.0535765,-1.488422,10.216377)">
<stop offset="0" style="stop-color:rgb(55.29412%,43.137255%,38.82353%);stop-opacity:1;"/>
<stop offset="1" style="stop-color:rgb(63.137257%,53.333336%,49.803922%);stop-opacity:1;"/>
</linearGradient>
<linearGradient id="linear4" gradientUnits="userSpaceOnUse" x1="222.25" y1="64.166664" x2="222.25" y2="-31.083334" gradientTransform="matrix(0.0267883,0,0,0.0267883,4.465263,10.659501)">
<stop offset="0" style="stop-color:rgb(25.882354%,25.882354%,25.882354%);stop-opacity:1;"/>
<stop offset="1" style="stop-color:rgb(38.039216%,38.039216%,38.039216%);stop-opacity:1;"/>
</linearGradient>
</defs>
<g id="surface1">
<path style=" stroke:none;fill-rule:nonzero;fill:url(#radial0);" d="M 13.644531 21.027344 L 15.628906 21.027344 L 15.628906 20.03125 L 13.644531 20.03125 Z M 13.644531 21.027344 "/>
<path style=" stroke:none;fill-rule:nonzero;fill:url(#radial1);" d="M 10.171875 21.027344 L 8.1875 21.027344 L 8.1875 22.019531 L 10.171875 22.019531 Z M 10.171875 21.027344 "/>
<path style=" stroke:none;fill-rule:nonzero;fill:url(#radial2);" d="M 10.171875 21.027344 L 8.1875 21.027344 L 8.1875 20.03125 L 10.171875 20.03125 Z M 10.171875 21.027344 "/>
<path style=" stroke:none;fill-rule:nonzero;fill:url(#radial3);" d="M 13.644531 21.027344 L 15.628906 21.027344 L 15.628906 22.019531 L 13.644531 22.019531 Z M 13.644531 21.027344 "/>
<path style=" stroke:none;fill-rule:nonzero;fill:url(#linear0);" d="M 10.171875 20.777344 L 13.644531 20.777344 L 13.644531 22.019531 L 10.171875 22.019531 Z M 10.171875 20.777344 "/>
<path style=" stroke:none;fill-rule:nonzero;fill:url(#linear1);" d="M 11.90625 2.171875 C 17.113281 2.171875 21.335938 6.390625 21.335938 11.597656 C 21.335938 16.804688 17.113281 21.027344 11.90625 21.027344 C 6.703125 21.027344 2.480469 16.804688 2.480469 11.597656 C 2.480469 6.390625 6.703125 2.171875 11.90625 2.171875 Z M 11.90625 2.171875 "/>
<path style=" stroke:none;fill-rule:nonzero;fill:rgb(0%,0%,0%);fill-opacity:0.196078;" d="M 11.90625 21.027344 C 6.683594 21.027344 2.480469 16.820312 2.480469 11.597656 C 2.480469 11.566406 2.480469 11.539062 2.480469 11.507812 C 2.53125 16.6875 6.714844 20.839844 11.90625 20.839844 C 17.097656 20.839844 21.285156 16.6875 21.332031 11.507812 C 21.332031 11.539062 21.335938 11.566406 21.335938 11.597656 C 21.335938 16.820312 17.128906 21.027344 11.90625 21.027344 Z M 11.90625 21.027344 "/>
<path style=" stroke:none;fill-rule:nonzero;fill:rgb(100%,100%,100%);fill-opacity:0.392157;" d="M 11.90625 2.171875 C 6.683594 2.171875 2.480469 6.375 2.480469 11.597656 C 2.480469 11.628906 2.480469 11.660156 2.480469 11.691406 C 2.53125 6.511719 6.714844 2.355469 11.90625 2.355469 C 17.097656 2.355469 21.285156 6.511719 21.332031 11.691406 C 21.332031 11.660156 21.335938 11.628906 21.335938 11.597656 C 21.335938 6.375 17.128906 2.171875 11.90625 2.171875 Z M 11.90625 2.171875 "/>
<path style="fill-rule:nonzero;fill:rgb(100%,100%,100%);fill-opacity:0.392157;stroke-width:3;stroke-linecap:round;stroke-linejoin:round;stroke:rgb(12.941177%,12.941177%,12.941177%);stroke-opacity:1;stroke-miterlimit:4;" d="M 327.885355 160.797446 C 332.551576 158.21436 334.551385 152.63156 332.634902 147.715362 L 282.139724 17.977752 C 279.806613 11.978325 272.640631 9.478563 267.057831 12.644928 L 230.394665 33.809573 C 224.811865 37.059263 223.395333 44.558547 227.394952 49.641395 L 314.553295 158.21436 C 317.802985 162.213978 323.385785 163.297208 327.885355 160.797446 Z M 327.885355 160.797446 " transform="matrix(0.0468795,0,0,0.0468795,0,10.079087)"/>
<path style="fill:none;stroke-width:3;stroke-linecap:round;stroke-linejoin:round;stroke:rgb(12.941177%,12.941177%,12.941177%);stroke-opacity:1;stroke-miterlimit:4;" d="M 180.066138 -96.011363 C 175.483242 -93.428276 173.483433 -87.845476 175.399917 -82.929279 L 225.811769 46.808332 C 228.14488 52.891084 235.310862 55.390846 240.976988 52.141156 L 277.640153 30.97651 C 283.222954 27.726821 284.639485 20.310862 280.556542 15.228014 L 193.481523 -93.344951 C 190.231834 -97.344569 184.565708 -98.427799 180.066138 -96.011363 Z M 180.066138 -96.011363 " transform="matrix(0.0468795,0,0,0.0468795,0,10.079087)"/>
<path style=" stroke:none;fill-rule:nonzero;fill:rgb(0%,0%,0%);fill-opacity:0.235294;" d="M 8.441406 5.578125 C 8.226562 5.699219 8.132812 5.960938 8.222656 6.191406 L 10.585938 12.273438 C 10.695312 12.558594 11.03125 12.675781 11.296875 12.523438 L 13.015625 11.53125 C 13.277344 11.378906 13.34375 11.03125 13.152344 10.792969 L 9.070312 5.703125 C 8.917969 5.515625 8.652344 5.464844 8.441406 5.578125 Z M 8.441406 5.578125 "/>
<path style=" stroke:none;fill-rule:nonzero;fill:rgb(12.941177%,12.941177%,12.941177%);fill-opacity:1;" d="M 11.90625 2.101562 C 6.648438 2.101562 2.410156 6.339844 2.410156 11.597656 C 2.410156 16.859375 6.648438 21.097656 11.90625 21.097656 C 17.167969 21.097656 21.40625 16.859375 21.40625 11.597656 C 21.40625 6.339844 17.167969 2.101562 11.90625 2.101562 Z M 11.90625 2.242188 C 17.09375 2.242188 21.265625 6.414062 21.265625 11.597656 C 21.265625 16.785156 17.09375 20.957031 11.90625 20.957031 C 6.722656 20.957031 2.550781 16.785156 2.550781 11.597656 C 2.550781 6.414062 6.722656 2.242188 11.90625 2.242188 Z M 11.90625 2.242188 "/>
<path style=" stroke:none;fill-rule:nonzero;fill:url(#linear2);" d="M 7.441406 15.566406 C 7.441406 15.566406 8.433594 14.359375 9.984375 14.082031 C 12.90625 13.5625 14.65625 12.492188 15.632812 11.460938 C 16.855469 10.167969 17.363281 8.621094 17.363281 8.621094 C 17.363281 8.621094 10.417969 6.636719 7.898438 9.613281 C 6.050781 11.792969 7.441406 15.566406 7.441406 15.566406 Z M 7.441406 15.566406 "/>
<path style=" stroke:none;fill-rule:nonzero;fill:url(#linear3);" d="M 10.417969 9.117188 C 11.515625 9.117188 12.402344 10.007812 12.402344 11.101562 C 12.402344 12.199219 11.515625 13.085938 10.417969 13.085938 C 9.324219 13.085938 8.433594 12.199219 8.433594 11.101562 C 8.433594 10.007812 9.324219 9.117188 10.417969 9.117188 Z M 10.417969 9.117188 "/>
<path style=" stroke:none;fill-rule:nonzero;fill:url(#linear4);" d="M 10.417969 10.109375 C 10.96875 10.109375 11.410156 10.554688 11.410156 11.101562 C 11.410156 11.652344 10.96875 12.09375 10.417969 12.09375 C 9.871094 12.09375 9.425781 11.652344 9.425781 11.101562 C 9.425781 10.554688 9.871094 10.109375 10.417969 10.109375 Z M 10.417969 10.109375 "/>
<path style=" stroke:none;fill-rule:nonzero;fill:rgb(100%,100%,100%);fill-opacity:1;" d="M 12.695312 7.972656 C 10.882812 7.972656 8.980469 8.332031 7.898438 9.613281 C 7.128906 10.523438 6.921875 11.707031 6.941406 12.78125 C 6.960938 11.785156 7.195312 10.71875 7.898438 9.886719 C 8.980469 8.609375 10.882812 8.246094 12.695312 8.25 C 14.820312 8.253906 16.824219 8.753906 17.269531 8.871094 C 17.335938 8.714844 17.363281 8.621094 17.363281 8.621094 C 17.363281 8.621094 15.105469 7.976562 12.695312 7.972656 Z M 12.695312 7.972656 "/>
<path style=" stroke:none;fill-rule:nonzero;fill:rgb(0%,0%,0%);fill-opacity:0.235294;" d="M 17.1875 9.070312 C 16.945312 9.625 16.449219 10.597656 15.632812 11.460938 C 14.65625 12.492188 12.90625 13.5625 9.984375 14.082031 C 8.433594 14.359375 7.441406 15.566406 7.441406 15.566406 C 7.441406 15.566406 6.992188 14.347656 6.945312 12.898438 C 6.886719 14.558594 7.441406 16.0625 7.441406 16.0625 C 7.441406 16.0625 8.433594 14.855469 9.984375 14.578125 C 12.90625 14.058594 14.65625 12.988281 15.632812 11.957031 C 16.855469 10.664062 17.363281 9.117188 17.363281 9.117188 C 17.363281 9.117188 17.300781 9.101562 17.1875 9.070312 Z M 17.1875 9.070312 "/>
<path style="fill:none;stroke-width:3;stroke-linecap:butt;stroke-linejoin:miter;stroke:rgb(12.941177%,12.941177%,12.941177%);stroke-opacity:1;stroke-miterlimit:4;" d="M 158.734842 117.051624 C 158.734842 117.051624 179.899487 91.304083 212.979661 85.387981 C 275.307043 74.305706 312.636811 51.474553 333.468155 29.476654 C 359.548998 1.895954 370.381297 -31.100895 370.381297 -31.100895 C 370.381297 -31.100895 222.228778 -73.430186 168.483911 -9.936249 C 129.071008 36.559311 158.734842 117.051624 158.734842 117.051624 Z M 158.734842 117.051624 " transform="matrix(0.0468795,0,0,0.0468795,0,10.079087)"/>
<path style="fill:none;stroke-width:3;stroke-linecap:round;stroke-linejoin:round;stroke:rgb(12.941177%,12.941177%,12.941177%);stroke-opacity:1;stroke-miterlimit:4;" d="M 222.228778 -20.518572 C 245.643209 -20.518572 264.558069 -1.520386 264.558069 21.810719 C 264.558069 45.22515 245.643209 64.14001 222.228778 64.14001 C 198.897673 64.14001 179.899487 45.22515 179.899487 21.810719 C 179.899487 -1.520386 198.897673 -20.518572 222.228778 -20.518572 Z M 222.228778 -20.518572 " transform="matrix(0.0468795,0,0,0.0468795,0,10.079087)"/>
<path style="fill:none;stroke-width:3;stroke-linecap:round;stroke-linejoin:round;stroke:rgb(12.941177%,12.941177%,12.941177%);stroke-opacity:1;stroke-miterlimit:4;" d="M 222.228778 0.646073 C 233.977656 0.646073 243.393424 10.145166 243.393424 21.810719 C 243.393424 33.559597 233.977656 42.975365 222.228778 42.975365 C 210.563226 42.975365 201.064133 33.559597 201.064133 21.810719 C 201.064133 10.145166 210.563226 0.646073 222.228778 0.646073 Z M 222.228778 0.646073 " transform="matrix(0.0468795,0,0,0.0468795,0,10.079087)"/>
<path style=" stroke:none;fill-rule:nonzero;fill:rgb(100%,100%,100%);fill-opacity:0.156863;" d="M 10.171875 10.359375 C 10.445312 10.359375 10.667969 10.582031 10.667969 10.855469 C 10.667969 11.128906 10.445312 11.351562 10.171875 11.351562 C 9.898438 11.351562 9.675781 11.128906 9.675781 10.855469 C 9.675781 10.582031 9.898438 10.359375 10.171875 10.359375 Z M 10.171875 10.359375 "/>
</g>
</svg>
